.local/share/icons/Gruvbox-Plus-Dark/panel/22/keybase-update.svg

<svg xmlns="http://www.w3.org/2000/svg" width="22" height="22" version="1.1">
 <defs>
  <style id="current-color-scheme" type="text/css">
   .ColorScheme-Text { color:#ebdbb2; } .ColorScheme-Highlight { color:#458588; }
  </style>
 </defs>
 <path style="fill:currentColor" class="ColorScheme-Text" d="M 9.3378906 3 C 9.2917506 3 8.9898905 3.5097587 8.703125 4.0722656 C 8.2833253 4.8957293 8.0823547 5.5282129 8.0136719 6.2597656 C 7.9967029 6.44054 8.0003426 6.6184414 8.0117188 6.7929688 C 8.0046385 6.8715927 8.00072 6.9503658 8 7.0292969 C 8 7.350909 8.06468 7.6552539 8.1601562 7.9453125 C 6.8950988 8.5095454 5.823752 9.4303821 5.0878906 10.589844 C 4.9068303 10.826602 4.7468155 11.073389 4.6308594 11.337891 C 4.4486475 11.753525 4.313504 12.183712 4.2109375 12.648438 C 4.1426895 12.924193 4.0852482 13.20267 4.0507812 13.490234 C 4.0477112 13.515834 4.0557914 13.521208 4.0683594 13.517578 C 4.0552044 13.628341 4.0375767 13.733607 4.0273438 13.849609 C 3.9945383 14.221494 3.9905989 14.374998 4.015625 14.375 L 8 10 L 6.96875 13.455078 C 6.97482 13.461178 7.1062876 13.407508 7.2617188 13.335938 C 8.2166789 12.896235 9.4068483 12.129473 10.458984 12.003906 C 10.821824 11.960606 12.080719 11.956444 12.458984 11.996094 C 12.832034 12.035183 13.188956 12.195526 13.556641 12.376953 A 5 5 0 0 1 17 11 A 5 5 0 0 1 17.140625 11.007812 C 17.124657 10.95573 17.099266 10.896318 17.054688 10.818359 C 16.958797 10.563556 16.816689 10.307994 16.603516 10.019531 C 15.812925 9.150762 14.885394 8.4287802 13.837891 7.9492188 C 13.934232 7.6579794 14 7.3524242 14 7.0292969 C 13.999974 6.9537899 13.997885 6.8780222 13.992188 6.8027344 C 13.994787 6.7274754 14.001947 6.6521806 13.998047 6.578125 C 13.944926 5.5609826 13.350328 4.8631388 12.453125 4.4042969 C 11.978118 4.1613714 11.251468 4.0478117 10.777344 4.046875 C 10.185851 4.045709 9.7363509 3.537145 9.4472656 3.1210938 C 9.4009907 3.0544931 9.3516794 2.9999994 9.3378906 3 z M 17 12 C 14.7909 12 13 13.7909 13 16 C 13 18.2091 14.7909 20 17 20 C 19.2091 20 21 18.2091 21 16 C 21 13.7909 19.2091 12 17 12 z M 12.355469 12.990234 C 12.213148 12.975324 10.678186 12.984094 10.578125 12.996094 C 9.9135234 13.075414 8.7491037 13.751739 7.6796875 14.244141 C 7.5909405 14.285001 7.5096359 14.321393 7.4355469 14.351562 C 7.3985019 14.366644 7.3668921 14.379364 7.3164062 14.396484 C 7.2911633 14.405084 7.2657062 14.414495 7.1992188 14.429688 C 7.1659748 14.437288 7.1266108 14.447525 7.0273438 14.453125 C 6.9777107 14.455925 6.7992596 14.441486 6.7988281 14.441406 C 6.7986124 14.441366 6.5782807 14.37507 6.578125 14.375 C 6.5779693 14.374934 6.2598605 14.160252 6.2597656 14.160156 A 1.0001 1.0001 0 0 1 5.9960938 13.6875 L 4.7558594 15.048828 A 1.0001 1.0001 0 0 1 4.0898438 15.373047 A 6.9999312 6.9999312 0 0 0 5.7929688 19 L 13.007812 19 A 5 5 0 0 1 12 16 A 5 5 0 0 1 12.863281 13.193359 C 12.650594 13.088004 12.470002 13.002236 12.355469 12.990234 z M 17 13 A 3 3 0 0 1 20 16 L 19 16 A 2 2 0 0 0 17 14 L 17 13 z M 8 15 A 1 1 0 0 1 9 16 A 1 1 0 0 1 8 17 A 1 1 0 0 1 7 16 A 1 1 0 0 1 8 15 z M 14 16 L 15 16 A 2 2 0 0 0 17 18 L 17 19 A 3 3 0 0 1 14 16 z"/>
</svg>

<svg width="22" height="22" version="1.1" xmlns="http://www.w3.org/2000/svg">
  <defs>
    <style id="current-color-scheme" type="text/css">.ColorScheme-Text { color:#ebdbb2; } .ColorScheme-Highlight { color:#458588; } .ColorScheme-NeutralText { color:#fe8019; } .ColorScheme-PositiveText { color:#689d6a; } .ColorScheme-NegativeText { color:#fb4934; }</style>
  </defs>
  <path class="ColorScheme-Text" d="m17 12c-2.209 0-4 1.791-4 4s1.791 4 4 4 4-1.791 4-4-1.791-4-4-4zm0 1c1.657 0 3 1.343 3 3h-1c0-1.105-0.8954-2-2-2zm-3 3h1c0 1.105 0.8954 2 2 2v1c-1.657 0-3-1.343-3-3zm-4.643-13c-0.06868-7.2e-4 -0.3714 0.5101-0.6582 1.072-0.4138 0.8118-1.032 2.389-0.543 3.873-4.318 1.814-4.166 6.432-4.15 6.432l3.99-4.375-1.031 3.453s2.165-1.207 3.49-1.449c0.7684-0.1401 1.235-0.1287 2-0.0078 0.3839 0.06062 0.7459 0.2074 1.113 0.377 0.9252-0.879 2.152-1.371 3.428-1.375 0.03842 2.24e-4 0.07683 8.91e-4 0.1152 2e-3 -0.365-1.201-1.988-2.461-3.277-3.051 0.1937-0.5855 0.6415-2.508-1.385-3.545-0.475-0.2429-1.202-0.3565-1.676-0.3574-0.8649-0.00171-1.347-1.048-1.416-1.049zm2.184 9.889c-0.2561-0.0028-0.5383 0.02937-0.9668 0.1074-0.6586 0.1195-1.829 0.7556-2.898 1.248-1.36 0.626-1.656-0.4393-1.684-0.5566l-1.24 1.361c-0.1723 0.1893-0.4107 0.3054-0.666 0.3242 0.2021 1.349 0.7942 2.61 1.703 3.627h7.223c-0.6547-0.8635-1.011-1.916-1.016-3 0.0026-1.007 0.3089-1.989 0.8789-2.818-0.1772-0.08513-0.3472-0.1582-0.5234-0.1914-0.324-0.06106-0.5544-0.09879-0.8105-0.1016zm-3.545 2.111c0.5523 0 1 0.4477 1 1s-0.4477 1-1 1-1-0.4477-1-1 0.4477-1 1-1z" fill="currentColor"/>
</svg>
